svg/numeric_6_box_multiple_outline.svg

<svg xmlns="http://www.w3.org/2000/svg" viewBox="0 0 24 24"><path d="M13 11h2v2h-2m0 2h2a2 2 0 0 0 2-2v-2a2 2 0 0 0-2-2h-2V7h4V5h-4a2 2 0 0 0-2 2v6a2 2 0 0 0 2 2m8 2H7V3h14m0-2H7a2 2 0 0 0-2 2v14a2 2 0 0 0 2 2h14a2 2 0 0 0 2-2V3a2 2 0 0 0-2-2M3 5H1v16a2 2 0 0 0 2 2h16v-2H3z"/></svg>

<?xml version="1.0" encoding="UTF-8"?><!DOCTYPE svg PUBLIC "-//W3C//DTD SVG 1.1//EN" "http://www.w3.org/Graphics/SVG/1.1/DTD/svg11.dtd"><svg xmlns="http://www.w3.org/2000/svg" xmlns:xlink="http://www.w3.org/1999/xlink" version="1.1" id="mdi-numeric-6-box-multiple-outline" width="24" height="24" viewBox="0 0 24 24"><path d="M13,11H15V13H13M13,15H15A2,2 0 0,0 17,13V11C17,9.89 16.1,9 15,9H13V7H17V5H13A2,2 0 0,0 11,7V13C11,14.11 11.9,15 13,15M21,17H7V3H21M21,1H7A2,2 0 0,0 5,3V17A2,2 0 0,0 7,19H21A2,2 0 0,0 23,17V3A2,2 0 0,0 21,1M3,5H1V21A2,2 0 0,0 3,23H19V21H3V5Z" /></svg>
